src/module/module-help.svg

<?xml version="1.0" encoding="utf-8"?>
<!-- Generator: Adobe Illustrator 19.1.0, SVG Export Plug-In . SVG Version: 6.00 Build 0)  -->
<svg version="1.1" xmlns="http://www.w3.org/2000/svg" xmlns:xlink="http://www.w3.org/1999/xlink" x="0px" y="0px"
	 viewBox="0 0 16 16" enable-background="new 0 0 16 16" xml:space="preserve">
<g fill="#FFFFFF" id="module-help">
	<path d="M8,15c-3.86,0-7-3.14-7-7s3.14-7,7-7c3.86,0,7,3.14,7,7S11.86,15,8,15z M8.18,3.33c-1.49,0-2.6,0.64-3.38,1.94
		C4.72,5.4,4.76,5.57,4.87,5.66l1.2,0.91c0.05,0.04,0.11,0.05,0.17,0.05c0.08,0,0.17-0.04,0.23-0.11C6.91,5.97,7.09,5.8,7.26,5.68
		c0.15-0.11,0.46-0.22,0.78-0.22c0.58,0,1.12,0.37,1.12,0.78c0,0.47-0.25,0.71-0.8,0.97C7.72,7.49,6.83,8.25,6.83,9.13v0.33
		c0,0.16,0.13,0.29,0.29,0.29h1.75c0.16,0,0.29-0.13,0.29-0.29c0-0.21,0.26-0.66,0.69-0.9c0.69-0.39,1.64-0.92,1.64-2.31
		C11.5,4.58,9.75,3.33,8.18,3.33z M9.17,10.62c0-0.16-0.13-0.29-0.29-0.29H7.13c-0.16,0-0.29,0.13-0.29,0.29v1.75
		c0,0.16,0.13,0.29,0.29,0.29h1.75c0.16,0,0.29-0.13,0.29-0.29V10.62z"/>
</g>
</svg>

<?xml version="1.0" encoding="UTF-8" standalone="no"?>
<!-- Generator: Adobe Illustrator 19.1.0, SVG Export Plug-In . SVG Version: 6.00 Build 0)  -->

<svg
   xmlns:dc="http://purl.org/dc/elements/1.1/"
   xmlns:cc="http://creativecommons.org/ns#"
   xmlns:rdf="http://www.w3.org/1999/02/22-rdf-syntax-ns#"
   xmlns:svg="http://www.w3.org/2000/svg"
   xmlns="http://www.w3.org/2000/svg"
   xmlns:sodipodi="http://sodipodi.sourceforge.net/DTD/sodipodi-0.dtd"
   xmlns:inkscape="http://www.inkscape.org/namespaces/inkscape"
   version="1.1"
   x="0px"
   y="0px"
   viewBox="0 0 16 16"
   enable-background="new 0 0 16 16"
   xml:space="preserve"
   id="svg2"
   inkscape:version="0.91 r13725"
   sodipodi:docname="module-help.svg"><metadata
     id="metadata11"><rdf:RDF><cc:Work
         rdf:about=""><dc:format>image/svg+xml</dc:format><dc:type
           rdf:resource="http://purl.org/dc/dcmitype/StillImage" /></cc:Work></rdf:RDF></metadata><defs
     id="defs9" /><sodipodi:namedview
     pagecolor="#ffffff"
     bordercolor="#666666"
     borderopacity="1"
     objecttolerance="10"
     gridtolerance="10"
     guidetolerance="10"
     inkscape:pageopacity="0"
     inkscape:pageshadow="2"
     inkscape:window-width="2048"
     inkscape:window-height="1051"
     id="namedview7"
     showgrid="false"
     inkscape:zoom="5.6568542"
     inkscape:cx="-12.813391"
     inkscape:cy="26.153471"
     inkscape:window-x="2048"
     inkscape:window-y="23"
     inkscape:window-maximized="1"
     inkscape:current-layer="svg2" /><g
     fill="#FFFFFF"
     id="module-help"
     style="fill:#ffffff;fill-opacity:1"><path
       d="M 8,15 C 4.14,15 1,11.86 1,8 1,4.14 4.14,1 8,1 c 3.86,0 7,3.14 7,7 0,3.86 -3.14,7 -7,7 z M 8.18,3.33 C 6.69,3.33 5.58,3.97 4.8,5.27 4.72,5.4 4.76,5.57 4.87,5.66 l 1.2,0.91 C 6.12,6.61 6.18,6.62 6.24,6.62 6.32,6.62 6.41,6.58 6.47,6.51 6.91,5.97 7.09,5.8 7.26,5.68 7.41,5.57 7.72,5.46 8.04,5.46 8.62,5.46 9.1326563,5.7284375 9.16,6.24 9.1850864,6.70933 8.91,6.95 8.36,7.21 7.72,7.49 6.83,8.25 6.83,9.13 l 0,0.33 c 0,0.16 0.13,0.29 0.29,0.29 l 1.75,0 C 9.03,9.75 9.16,9.62 9.16,9.46 9.16,9.25 9.42,8.8 9.85,8.56 10.54,8.17 11.49,7.64 11.49,6.25 11.5,4.58 9.75,3.33 8.18,3.33 Z m 0.99,7.29 c 0,-0.16 -0.13,-0.29 -0.29,-0.29 l -1.75,0 c -0.16,0 -0.29,0.13 -0.29,0.29 l 0,1.75 c 0,0.16 0.13,0.29 0.29,0.29 l 1.75,0 c 0.16,0 0.29,-0.13 0.29,-0.29 z"
       id="path5"
       style="fill:#ffffff;fill-opacity:1"
       inkscape:connector-curvature="0"
       sodipodi:nodetypes="sssssscccsccsscsssssccssssssssss" /></g></svg>
